X: 25768
T: Mary's Joys And Sorrows
R: waltz
M: 3/4
K: Dmajor
D4D2|A3B/A/ GF|G3AFA|E3F/E/ DC|
D4D2|A3B/A/ GF|G3AFA|E3ABc|
d3ecd|B3cAB|G3AFA|E3F/E/ DC|
D4D2|A3B/A/ GF|G3AFA|E3F/E/ DC||

